X: 1
T: The Melbourne Clog Dance
O: Australia
R: hornpipe
Z: 2011 John Chambers <jc:trillian.mit.edu>
F: http://www.mediafire.com/imageview.php?quickkey=12lzmsgy8hoh8os
M: C|
L: 1/8
K: C
|: "C"G2 ((3EF^F) G>c e>c | "Dm/f"A2 ((3FG^G) A>d f>d |\
"G"B>G B>d g>f d>B | "C"c>B c>d e>g e>c |
"C"G2 ((3EF^F) G>c e>c | "Dm/f"A2 ((3FG^G) A>d f>d |\
"G"G>A B>c d>e f>B | "C"c2 [e2G2] [c2E2] z2 H:|
"Am"e2 ((3cd^d) e>g f>e | "E7"E>E ^G>B d>B c>d |\
"Am"e2 ((3cd^d) e>g f>e | "E7"B>c B>A ^G2 E2 |
"Am"e2 ((3cd^d) e>g f>e | "E7"B>c B>A ^G2 B2 |\
"E7"((3E^DE) ((3^GEG) ((3BGB) ((3edB) | "Am"A2 z2 "G7"[G4B,4] |]
